_assets/images/hero-cta.svg

<svg height="52" viewBox="0 0 82 52" width="82" xmlns="http://www.w3.org/2000/svg"><g fill="none" fill-rule="evenodd" transform="translate(1 1)"><path d="m70.850554 49.7893346h-61.74460095c-1.45971831 0-2.64319249-1.1963878-2.64319249-2.6722433v-44.44467685c0-1.47604563 1.18347418-2.67243346 2.64319249-2.67243346h61.74460095c1.4597183 0 2.6430047 1.19638783 2.6430047 2.67243346v44.44467685c0 1.4758555-1.1832864 2.6722433-2.6430047 2.6722433" fill="#fff"/><path d="m70.850554 49.7893346h-61.74460095c-1.45971831 0-2.64319249-1.1963878-2.64319249-2.6722433v-44.44467685c0-1.47604563 1.18347418-2.67243346 2.64319249-2.67243346h61.74460095c1.4597183 0 2.6430047 1.19638783 2.6430047 2.67243346v44.44467685c0 1.4758555-1.1832864 2.6722433-2.6430047 2.6722433" fill="#e6f5f9"/><path d="m61.8940657 43.4418631h-53.15586852c-1.25652582 0-2.27549295-.9659696-2.27549295-2.1574144v-35.87984794c0-1.19144487 1.01896713-2.15722433 2.27549295-2.15722433h53.15586852c1.2565258 0 2.275493.96577946 2.275493 2.15722433v35.87984794c0 1.1914448-1.0189672 2.1574144-2.275493 2.1574144" fill="#fff"/><path d="m70.850554 49.7893346h-61.74460095c-1.45971831 0-2.64319249-1.1963878-2.64319249-2.6722433v-44.44467685c0-1.47604563 1.18347418-2.67243346 2.64319249-2.67243346h61.74460095c1.4597183 0 2.6430047 1.19638783 2.6430047 2.67243346v44.44467685c0 1.4758555-1.1832864 2.6722433-2.6430047 2.6722433z" stroke="#2b3554" stroke-width=".75"/><path d="m73.493784 13.2593916v-10.58707221c0-1.47585551-1.1834741-2.67224334-2.6433802-2.67224334h-61.74441319c-1.4599061 0-2.64319249 1.19638783-2.64319249 2.67224334v10.58707221z" fill="#5ecc62"/><path d="m73.493784 13.2593916v-10.58707221c0-1.47585551-1.1834741-2.67224334-2.6433802-2.67224334h-61.74441319c-1.4599061 0-2.64319249 1.19638783-2.64319249 2.67224334v10.58707221z" stroke="#2b3554" stroke-width=".75"/><path d="m73.5126761 4.72756654v-2.05532319c0-1.47585552-1.1817841-2.67224335-2.6396245-2.67224335h-61.77070418c-1.45784038 0-2.63962442 1.19638783-2.63962442 2.67224335v2.05532319z" fill="#ff6161"/><path d="m73.5126761 4.72756654v-2.05532319c0-1.47585552-1.1817841-2.67224335-2.6396245-2.67224335h-61.77070418c-1.45784038 0-2.63962442 1.19638783-2.63962442 2.67224335v2.05532319z" stroke="#2b3554" stroke-linecap="round" stroke-linejoin="round" stroke-width=".75"/><path d="m29.4393615 2.31446768h26.531831" stroke="#2b3554" stroke-linecap="round" stroke-linejoin="round" stroke-width=".75"/><path d="m68.0653897 2.31446768h.9949295" stroke="#2b3554" stroke-linecap="round" stroke-linejoin="round" stroke-width=".75"/><path d="m65.6163756 2.31446768h.9947418" stroke="#2b3554" stroke-linecap="round" stroke-linejoin="round" stroke-width=".75"/><path d="m62.8799812 2.31446768h1.2146479" stroke="#2b3554" stroke-linecap="round" stroke-linejoin="round" stroke-width=".75"/><path d="m10.4250892 2.32467681c0 .47072243-.3844131.85209125-.85859155.85209125-.47436619 0-.85896713-.38136882-.85896713-.85209125 0-.47072244.38460094-.85209126.85896713-.85209126.47417845 0 .85859155.38136882.85859155.85209126" fill="#3f4853"/><path d="m13.0815211 2.32467681c0 .47072243-.3844131.85209125-.8585915.85209125-.4743662 0-.8587794-.38136882-.8587794-.85209125 0-.47072244.3844132-.85209126.8587794-.85209126.4741784 0 .8585915.38136882.8585915.85209126" fill="#3f4853"/><path d="m15.6794554 2.32467681c0 .47072243-.3844131.85209125-.8585916.85209125-.4743661 0-.8587793-.38136882-.8587793-.85209125 0-.47072244.3844132-.85209126.8587793-.85209126.4741785 0 .8585916.38136882.8585916.85209126" fill="#3f4853"/><path d="m16.9540282 26.5030608c-.5447888 0-.9866667-.4471483-.9866667-.9986692v-7.5986692c0-.5458175.4369953-.9882129.9761502-.9882129h8.3613146c.5391549 0 .9761502.4423954.9761502.9882129v7.5986692c0 .5515209-.4418779.9986692-.9866666.9986692z" fill="#efefef"/><path d="m24.7910986 25.4539924h-8.4600939c-.2007512 0-.3635681-.1648289-.3635681-.3680608v-7.688213c0-.2032319.1628169-.3682509.3635681-.3682509h8.4600939c.2007512 0 .3637559.165019.3637559.3682509v7.688213c0 .2032319-.1630047.3680608-.3637559.3680608" fill="#00ad45"/><path d="m24.7910986 25.4539924h-8.4600939c-.2007512 0-.3635681-.1648289-.3635681-.3680608v-7.688213c0-.2032319.1628169-.3682509.3635681-.3682509h8.4600939c.2007512 0 .3637559.165019.3637559.3682509v7.688213c0 .2032319-.1630047.3680608-.3637559.3680608z" stroke="#2b3554" stroke-linecap="round" stroke-linejoin="round" stroke-width=".75"/><path d="m62.3681315 31.4281939h-13.0375587c-.9949296 0-1.8013146-.8515209-1.8013146-1.9020912v-.0384031c0-1.0505703.806385-1.9020912 1.8013146-1.9020912h13.0375587c.9949295 0 1.8015023.8515209 1.8015023 1.9020912v.0384031c0 1.0505703-.8065728 1.9020912-1.8015023 1.9020912" fill="#efefef"/><path d="m61.3543474 30.2608745h-12.3239436c-.8974648 0-1.6251644-.768441-1.6251644-1.7161597v-.0346007c0-.9477187.7276996-1.7161597 1.6251644-1.7161597h12.3239436c.8976526 0 1.6251643.768441 1.6251643 1.7161597v.0346007c0 .9477187-.7275117 1.7161597-1.6251643 1.7161597" fill="#5ecc62"/><path d="m61.3543474 30.2608745h-12.3239436c-.8974648 0-1.6251644-.768441-1.6251644-1.7161597v-.0346007c0-.9477187.7276996-1.7161597 1.6251644-1.7161597h12.3239436c.8976526 0 1.6251643.768441 1.6251643 1.7161597v.0346007c0 .9477187-.7275117 1.7161597-1.6251643 1.7161597z" stroke="#2b3554" stroke-width=".75"/><path d="m62.3681315 47.9432319h-13.0375587c-.9949296 0-1.8013146-.8515209-1.8013146-1.9020912v-.0385932c0-1.0503802.806385-1.9019011 1.8013146-1.9019011h13.0375587c.9949295 0 1.8015023.8515209 1.8015023 1.9019011v.0385932c0 1.0505703-.8065728 1.9020912-1.8015023 1.9020912" fill="#efefef"/><path d="m61.3543474 46.7758175h-12.3239436c-.8974648 0-1.6251644-.768251-1.6251644-1.7159696v-.0347909c0-.9477186.7276996-1.7159695 1.6251644-1.7159695h12.3239436c.8976526 0 1.6251643.7682509 1.6251643 1.7159695v.0347909c0 .9477186-.7275117 1.7159696-1.6251643 1.7159696" fill="#5ecc62"/><path d="m61.3543474 46.7758175h-12.3239436c-.8974648 0-1.6251644-.768251-1.6251644-1.7159696v-.0347909c0-.9477186.7276996-1.7159695 1.6251644-1.7159695h12.3239436c.8976526 0 1.6251643.7682509 1.6251643 1.7159695v.0347909c0 .9477186-.7275117 1.7159696-1.6251643 1.7159696z" stroke="#2b3554" stroke-width=".75"/><path d="m19.4826479 1.42787072-1.1562441.92737643 1.1562441.84581749" stroke="#2b3554" stroke-linecap="round" stroke-linejoin="round" stroke-width=".75"/><path d="m21.0288263 1.42787072 1.1562441.92737643-1.1562441.84581749" stroke="#2b3554" stroke-linecap="round" stroke-linejoin="round" stroke-width=".75"/><path d="m31.0807136 17.5725095c3.6099531.013308 26.2067606.0228137 32.4841315-.0087452" stroke="#2b3554" stroke-linecap="round" stroke-linejoin="round" stroke-width=".75"/><path d="m31.0864038 19.650038h22.7804694" stroke="#2b3554" stroke-linecap="round" stroke-linejoin="round" stroke-width=".75"/><path d="m31.164169 21.8524905h27.913615" stroke="#2b3554" stroke-linecap="round" stroke-linejoin="round" stroke-width=".75"/><path d="m31.0807136 23.9345627c4.943662.0180609 4.5357747.0159696 9.4796244-.0087452" stroke="#2b3554" stroke-linecap="round" stroke-linejoin="round" stroke-width=".75"/><path d="m16.9540282 43.2845247c-.5447888 0-.9866667-.4471483-.9866667-.9986692v-7.5986692c0-.5458175.4369953-.9882129.9761502-.9882129h8.3613146c.5391549 0 .9761502.4423954.9761502.9882129v7.5986692c0 .5515209-.4418779.9986692-.9866666.9986692z" fill="#efefef"/><path d="m24.7910986 42.2354563h-8.4600939c-.2007512 0-.3635681-.1648289-.3635681-.368251v-7.6880228c0-.203422.1628169-.3682509.3635681-.3682509h8.4600939c.2007512 0 .3637559.1648289.3637559.3682509v7.6880228c0 .2034221-.1630047.368251-.3637559.368251" fill="#00ad45"/><g stroke="#2b3554" stroke-width=".75"><path d="m24.7910986 42.2354563h-8.4600939c-.2007512 0-.3635681-.1648289-.3635681-.368251v-7.6880228c0-.203422.1628169-.3682509.3635681-.3682509h8.4600939c.2007512 0 .3637559.1648289.3637559.3682509v7.6880228c0 .2034221-.1630047.368251-.3637559.368251z" stroke-linecap="round" stroke-linejoin="round"/><path d="m31.0807136 34.3956654c3.6099531.013308 26.2067606.0228137 32.4841315-.0087452" stroke-linecap="round" stroke-linejoin="round"/><path d="m31.0864038 36.4731749h29.1785915" stroke-linecap="round" stroke-linejoin="round"/><path d="m31.164169 38.6756464h24.6978404" stroke-linecap="round" stroke-linejoin="round"/><path d="m31.0807136 40.7576996c4.943662.0180609 22.4319249.0159696 27.3755869-.0087452" stroke-linecap="round" stroke-linejoin="round"/><path d="m11.26723 7.03028517h9.1874179" stroke-linecap="round" stroke-linejoin="round"/><path d="m63.9267793 7.03028517h4.5936151" stroke-linecap="round" stroke-linejoin="round"/><path d="m51.441446 7.03028517h4.593615" stroke-linecap="round" stroke-linejoin="round"/><path d="m58.3274554 7.03028517h3.5322066" stroke-linecap="round" stroke-linejoin="round"/><path d="m-.00001878 49.7893346h79.97539908" stroke-linecap="round" stroke-linejoin="round"/></g></g></svg>

<?xml version="1.0" encoding="UTF-8"?>
<svg width="82px" height="52px" viewBox="0 0 82 52" version="1.1" xmlns="http://www.w3.org/2000/svg" xmlns:xlink="http://www.w3.org/1999/xlink">
    <!-- Generator: Sketch 53.2 (72643) - https://sketchapp.com -->
    <title>Browser</title>
    <desc>Created with Sketch.</desc>
    <g id="Page-1" stroke="none" stroke-width="1" fill="none" fill-rule="evenodd">
        <g id="Home" transform="translate(-144.000000, -466.000000)">
            <g id="Header" transform="translate(145.000000, 50.000000)">
                <g id="Browser" transform="translate(0.000000, 417.000000)">
                    <path d="M70.850554,49.7893346 L9.10595305,49.7893346 C7.64623474,49.7893346 6.46276056,48.5929468 6.46276056,47.1170913 L6.46276056,2.67241445 C6.46276056,1.19636882 7.64623474,-1.90114068e-05 9.10595305,-1.90114068e-05 L70.850554,-1.90114068e-05 C72.3102723,-1.90114068e-05 73.4935587,1.19636882 73.4935587,2.67241445 L73.4935587,47.1170913 C73.4935587,48.5929468 72.3102723,49.7893346 70.850554,49.7893346" id="Fill-1" fill="#FFFFFF"></path>
                    <path d="M70.850554,49.7893346 L9.10595305,49.7893346 C7.64623474,49.7893346 6.46276056,48.5929468 6.46276056,47.1170913 L6.46276056,2.67241445 C6.46276056,1.19636882 7.64623474,-1.90114068e-05 9.10595305,-1.90114068e-05 L70.850554,-1.90114068e-05 C72.3102723,-1.90114068e-05 73.4935587,1.19636882 73.4935587,2.67241445 L73.4935587,47.1170913 C73.4935587,48.5929468 72.3102723,49.7893346 70.850554,49.7893346" id="Fill-3" fill="#E6F5F9"></path>
                    <path d="M61.8940657,43.4418631 L8.73819718,43.4418631 C7.48167136,43.4418631 6.46270423,42.4758935 6.46270423,41.2844487 L6.46270423,5.40460076 C6.46270423,4.21315589 7.48167136,3.24737643 8.73819718,3.24737643 L61.8940657,3.24737643 C63.1505915,3.24737643 64.1695587,4.21315589 64.1695587,5.40460076 L64.1695587,41.2844487 C64.1695587,42.4758935 63.1505915,43.4418631 61.8940657,43.4418631" id="Fill-5" fill="#FFFFFF"></path>
                    <path d="M70.850554,49.7893346 L9.10595305,49.7893346 C7.64623474,49.7893346 6.46276056,48.5929468 6.46276056,47.1170913 L6.46276056,2.67241445 C6.46276056,1.19636882 7.64623474,-1.90114068e-05 9.10595305,-1.90114068e-05 L70.850554,-1.90114068e-05 C72.3102723,-1.90114068e-05 73.4935587,1.19636882 73.4935587,2.67241445 L73.4935587,47.1170913 C73.4935587,48.5929468 72.3102723,49.7893346 70.850554,49.7893346 Z" id="Stroke-7" stroke="#2B3554" stroke-width="0.75"></path>
                    <path d="M73.493784,13.2593916 L73.493784,2.67231939 C73.493784,1.19646388 72.3103099,7.60456274e-05 70.8504038,7.60456274e-05 L9.10599061,7.60456274e-05 C7.64608451,7.60456274e-05 6.46279812,1.19646388 6.46279812,2.67231939 L6.46279812,13.2593916 L73.493784,13.2593916 Z" id="Fill-9" fill="#5ECC62"></path>
                    <path d="M73.493784,13.2593916 L73.493784,2.67231939 C73.493784,1.19646388 72.3103099,7.60456274e-05 70.8504038,7.60456274e-05 L9.10599061,7.60456274e-05 C7.64608451,7.60456274e-05 6.46279812,1.19646388 6.46279812,2.67231939 L6.46279812,13.2593916 L73.493784,13.2593916 Z" id="Stroke-11" stroke="#2B3554" stroke-width="0.75"></path>
                    <path d="M73.5126761,4.72756654 L73.5126761,2.67224335 C73.5126761,1.19638783 72.330892,0 70.8730516,0 L9.10234742,0 C7.64450704,0 6.462723,1.19638783 6.462723,2.67224335 L6.462723,4.72756654 L73.5126761,4.72756654 Z" id="Fill-13" fill="#FF6161"></path>
                    <path d="M73.5126761,4.72756654 L73.5126761,2.67224335 C73.5126761,1.19638783 72.330892,0 70.8730516,0 L9.10234742,0 C7.64450704,0 6.462723,1.19638783 6.462723,2.67224335 L6.462723,4.72756654 L73.5126761,4.72756654 Z" id="Stroke-15" stroke="#2B3554" stroke-width="0.75" stroke-linecap="round" stroke-linejoin="round"></path>
                    <path d="M29.4393615,2.31446768 L55.9711925,2.31446768" id="Stroke-17" stroke="#2B3554" stroke-width="0.75" stroke-linecap="round" stroke-linejoin="round"></path>
                    <path d="M68.0653897,2.31446768 L69.0603192,2.31446768" id="Stroke-19" stroke="#2B3554" stroke-width="0.75" stroke-linecap="round" stroke-linejoin="round"></path>
                    <path d="M65.6163756,2.31446768 L66.6111174,2.31446768" id="Stroke-21" stroke="#2B3554" stroke-width="0.75" stroke-linecap="round" stroke-linejoin="round"></path>
                    <path d="M62.8799812,2.31446768 L64.0946291,2.31446768" id="Stroke-23" stroke="#2B3554" stroke-width="0.75" stroke-linecap="round" stroke-linejoin="round"></path>
                    <path d="M10.4250892,2.32467681 C10.4250892,2.79539924 10.0406761,3.17676806 9.56649765,3.17676806 C9.09213146,3.17676806 8.70753052,2.79539924 8.70753052,2.32467681 C8.70753052,1.85395437 9.09213146,1.47258555 9.56649765,1.47258555 C10.0406761,1.47258555 10.4250892,1.85395437 10.4250892,2.32467681" id="Fill-25" fill="#3F4853"></path>
                    <path d="M13.0815211,2.32467681 C13.0815211,2.79539924 12.697108,3.17676806 12.2229296,3.17676806 C11.7485634,3.17676806 11.3641502,2.79539924 11.3641502,2.32467681 C11.3641502,1.85395437 11.7485634,1.47258555 12.2229296,1.47258555 C12.697108,1.47258555 13.0815211,1.85395437 13.0815211,2.32467681" id="Fill-27" fill="#3F4853"></path>
                    <path d="M15.6794554,2.32467681 C15.6794554,2.79539924 15.2950423,3.17676806 14.8208638,3.17676806 C14.3464977,3.17676806 13.9620845,2.79539924 13.9620845,2.32467681 C13.9620845,1.85395437 14.3464977,1.47258555 14.8208638,1.47258555 C15.2950423,1.47258555 15.6794554,1.85395437 15.6794554,2.32467681" id="Fill-29" fill="#3F4853"></path>
                    <path d="M16.9540282,26.5030608 C16.4092394,26.5030608 15.9673615,26.0559125 15.9673615,25.5043916 L15.9673615,17.9057224 C15.9673615,17.3599049 16.4043568,16.9175095 16.9435117,16.9175095 L25.3048263,16.9175095 C25.8439812,16.9175095 26.2809765,17.3599049 26.2809765,17.9057224 L26.2809765,25.5043916 C26.2809765,26.0559125 25.8390986,26.5030608 25.2943099,26.5030608 L16.9540282,26.5030608 Z" id="Fill-31" fill="#EFEFEF"></path>
                    <path d="M24.7910986,25.4539924 L16.3310047,25.4539924 C16.1302535,25.4539924 15.9674366,25.2891635 15.9674366,25.0859316 L15.9674366,17.3977186 C15.9674366,17.1944867 16.1302535,17.0294677 16.3310047,17.0294677 L24.7910986,17.0294677 C24.9918498,17.0294677 25.1548545,17.1944867 25.1548545,17.3977186 L25.1548545,25.0859316 C25.1548545,25.2891635 24.9918498,25.4539924 24.7910986,25.4539924" id="Fill-33" fill="#00AD45"></path>
                    <path d="M24.7910986,25.4539924 L16.3310047,25.4539924 C16.1302535,25.4539924 15.9674366,25.2891635 15.9674366,25.0859316 L15.9674366,17.3977186 C15.9674366,17.1944867 16.1302535,17.0294677 16.3310047,17.0294677 L24.7910986,17.0294677 C24.9918498,17.0294677 25.1548545,17.1944867 25.1548545,17.3977186 L25.1548545,25.0859316 C25.1548545,25.2891635 24.9918498,25.4539924 24.7910986,25.4539924 Z" id="Stroke-35" stroke="#2B3554" stroke-width="0.75" stroke-linecap="round" stroke-linejoin="round"></path>
                    <path d="M62.3681315,31.4281939 L49.3305728,31.4281939 C48.3356432,31.4281939 47.5292582,30.576673 47.5292582,29.5261027 L47.5292582,29.4876996 C47.5292582,28.4371293 48.3356432,27.5856084 49.3305728,27.5856084 L62.3681315,27.5856084 C63.363061,27.5856084 64.1696338,28.4371293 64.1696338,29.4876996 L64.1696338,29.5261027 C64.1696338,30.576673 63.363061,31.4281939 62.3681315,31.4281939" id="Fill-37" fill="#EFEFEF"></path>
                    <path d="M61.3543474,30.2608745 L49.0304038,30.2608745 C48.132939,30.2608745 47.4052394,29.4924335 47.4052394,28.5447148 L47.4052394,28.5101141 C47.4052394,27.5623954 48.132939,26.7939544 49.0304038,26.7939544 L61.3543474,26.7939544 C62.252,26.7939544 62.9795117,27.5623954 62.9795117,28.5101141 L62.9795117,28.5447148 C62.9795117,29.4924335 62.252,30.2608745 61.3543474,30.2608745" id="Fill-39" fill="#5ECC62"></path>
                    <path d="M61.3543474,30.2608745 L49.0304038,30.2608745 C48.132939,30.2608745 47.4052394,29.4924335 47.4052394,28.5447148 L47.4052394,28.5101141 C47.4052394,27.5623954 48.132939,26.7939544 49.0304038,26.7939544 L61.3543474,26.7939544 C62.252,26.7939544 62.9795117,27.5623954 62.9795117,28.5101141 L62.9795117,28.5447148 C62.9795117,29.4924335 62.252,30.2608745 61.3543474,30.2608745 Z" id="Stroke-41" stroke="#2B3554" stroke-width="0.75"></path>
                    <path d="M62.3681315,47.9432319 L49.3305728,47.9432319 C48.3356432,47.9432319 47.5292582,47.091711 47.5292582,46.0411407 L47.5292582,46.0025475 C47.5292582,44.9521673 48.3356432,44.1006464 49.3305728,44.1006464 L62.3681315,44.1006464 C63.363061,44.1006464 64.1696338,44.9521673 64.1696338,46.0025475 L64.1696338,46.0411407 C64.1696338,47.091711 63.363061,47.9432319 62.3681315,47.9432319" id="Fill-43" fill="#EFEFEF"></path>
                    <path d="M61.3543474,46.7758175 L49.0304038,46.7758175 C48.132939,46.7758175 47.4052394,46.0075665 47.4052394,45.0598479 L47.4052394,45.025057 C47.4052394,44.0773384 48.132939,43.3090875 49.0304038,43.3090875 L61.3543474,43.3090875 C62.252,43.3090875 62.9795117,44.0773384 62.9795117,45.025057 L62.9795117,45.0598479 C62.9795117,46.0075665 62.252,46.7758175 61.3543474,46.7758175" id="Fill-45" fill="#5ECC62"></path>
                    <path d="M61.3543474,46.7758175 L49.0304038,46.7758175 C48.132939,46.7758175 47.4052394,46.0075665 47.4052394,45.0598479 L47.4052394,45.025057 C47.4052394,44.0773384 48.132939,43.3090875 49.0304038,43.3090875 L61.3543474,43.3090875 C62.252,43.3090875 62.9795117,44.0773384 62.9795117,45.025057 L62.9795117,45.0598479 C62.9795117,46.0075665 62.252,46.7758175 61.3543474,46.7758175 Z" id="Stroke-47" stroke="#2B3554" stroke-width="0.75"></path>
                    <polyline id="Stroke-49" stroke="#2B3554" stroke-width="0.75" stroke-linecap="round" stroke-linejoin="round" points="19.4826479 1.42787072 18.3264038 2.35524715 19.4826479 3.20106464"></polyline>
                    <polyline id="Stroke-51" stroke="#2B3554" stroke-width="0.75" stroke-linecap="round" stroke-linejoin="round" points="21.0288263 1.42787072 22.1850704 2.35524715 21.0288263 3.20106464"></polyline>
                    <path d="M31.0807136,17.5725095 C34.6906667,17.5858175 57.2874742,17.5953232 63.5648451,17.5637643" id="Stroke-53" stroke="#2B3554" stroke-width="0.75" stroke-linecap="round" stroke-linejoin="round"></path>
                    <path d="M31.0864038,19.650038 L53.8668732,19.650038" id="Stroke-55" stroke="#2B3554" stroke-width="0.75" stroke-linecap="round" stroke-linejoin="round"></path>
                    <path d="M31.164169,21.8524905 L59.077784,21.8524905" id="Stroke-57" stroke="#2B3554" stroke-width="0.75" stroke-linecap="round" stroke-linejoin="round"></path>
                    <path d="M31.0807136,23.9345627 C36.0243756,23.9526236 35.6164883,23.9505323 40.560338,23.9258175" id="Stroke-59" stroke="#2B3554" stroke-width="0.75" stroke-linecap="round" stroke-linejoin="round"></path>
                    <path d="M16.9540282,43.2845247 C16.4092394,43.2845247 15.9673615,42.8373764 15.9673615,42.2858555 L15.9673615,34.6871863 C15.9673615,34.1413688 16.4043568,33.6989734 16.9435117,33.6989734 L25.3048263,33.6989734 C25.8439812,33.6989734 26.2809765,34.1413688 26.2809765,34.6871863 L26.2809765,42.2858555 C26.2809765,42.8373764 25.8390986,43.2845247 25.2943099,43.2845247 L16.9540282,43.2845247 Z" id="Fill-61" fill="#EFEFEF"></path>
                    <path d="M24.7910986,42.2354563 L16.3310047,42.2354563 C16.1302535,42.2354563 15.9674366,42.0706274 15.9674366,41.8672053 L15.9674366,34.1791825 C15.9674366,33.9757605 16.1302535,33.8109316 16.3310047,33.8109316 L24.7910986,33.8109316 C24.9918498,33.8109316 25.1548545,33.9757605 25.1548545,34.1791825 L25.1548545,41.8672053 C25.1548545,42.0706274 24.9918498,42.2354563 24.7910986,42.2354563" id="Fill-63" fill="#00AD45"></path>
                    <path d="M24.7910986,42.2354563 L16.3310047,42.2354563 C16.1302535,42.2354563 15.9674366,42.0706274 15.9674366,41.8672053 L15.9674366,34.1791825 C15.9674366,33.9757605 16.1302535,33.8109316 16.3310047,33.8109316 L24.7910986,33.8109316 C24.9918498,33.8109316 25.1548545,33.9757605 25.1548545,34.1791825 L25.1548545,41.8672053 C25.1548545,42.0706274 24.9918498,42.2354563 24.7910986,42.2354563 Z" id="Stroke-65" stroke="#2B3554" stroke-width="0.75" stroke-linecap="round" stroke-linejoin="round"></path>
                    <path d="M31.0807136,34.3956654 C34.6906667,34.4089734 57.2874742,34.4184791 63.5648451,34.3869202" id="Stroke-67" stroke="#2B3554" stroke-width="0.75" stroke-linecap="round" stroke-linejoin="round"></path>
                    <path d="M31.0864038,36.4731749 L60.2649953,36.4731749" id="Stroke-69" stroke="#2B3554" stroke-width="0.75" stroke-linecap="round" stroke-linejoin="round"></path>
                    <path d="M31.164169,38.6756464 L55.8620094,38.6756464" id="Stroke-71" stroke="#2B3554" stroke-width="0.75" stroke-linecap="round" stroke-linejoin="round"></path>
                    <path d="M31.0807136,40.7576996 C36.0243756,40.7757605 53.5126385,40.7736692 58.4563005,40.7489544" id="Stroke-73" stroke="#2B3554" stroke-width="0.75" stroke-linecap="round" stroke-linejoin="round"></path>
                    <path d="M11.26723,7.03028517 L20.4546479,7.03028517" id="Stroke-75" stroke="#2B3554" stroke-width="0.75" stroke-linecap="round" stroke-linejoin="round"></path>
                    <path d="M63.9267793,7.03028517 L68.5203944,7.03028517" id="Stroke-77" stroke="#2B3554" stroke-width="0.75" stroke-linecap="round" stroke-linejoin="round"></path>
                    <path d="M51.441446,7.03028517 L56.035061,7.03028517" id="Stroke-79" stroke="#2B3554" stroke-width="0.75" stroke-linecap="round" stroke-linejoin="round"></path>
                    <path d="M58.3274554,7.03028517 L61.859662,7.03028517" id="Stroke-81" stroke="#2B3554" stroke-width="0.75" stroke-linecap="round" stroke-linejoin="round"></path>
                    <path d="M-1.87793427e-05,49.7893346 L79.9753803,49.7893346" id="Stroke-83" stroke="#2B3554" stroke-width="0.75" stroke-linecap="round" stroke-linejoin="round"></path>
                </g>
            </g>
        </g>
    </g>
</svg>
